images/checkbox.svg

<svg width="22" height="22" viewBox="0 0 22 22" fill="none" xmlns="http://www.w3.org/2000/svg">
<g id="checkbox" clip-path="url(#clip0_13_258)">
<path id="Rectangle 2701 (Stroke)" fill-rule="evenodd" clip-rule="evenodd" d="M12.4 1H9.6C7.90334 1 6.69099 1.00078 5.74064 1.07842C4.80197 1.15512 4.20731 1.30179 3.73005 1.54497C2.78924 2.02433 2.02433 2.78924 1.54497 3.73005C1.30179 4.20731 1.15512 4.80197 1.07842 5.74064C1.00078 6.69099 1 7.90334 1 9.6V12.4C1 14.0967 1.00078 15.309 1.07842 16.2594C1.15512 17.198 1.30179 17.7927 1.54497 18.27C2.02433 19.2108 2.78924 19.9757 3.73005 20.455C4.20731 20.6982 4.80197 20.8449 5.74064 20.9216C6.69099 20.9992 7.90334 21 9.6 21H12.4C14.0967 21 15.309 20.9992 16.2594 20.9216C17.198 20.8449 17.7927 20.6982 18.27 20.455C19.2108 19.9757 19.9757 19.2108 20.455 18.27C20.6982 17.7927 20.8449 17.198 20.9216 16.2594C20.9992 15.309 21 14.0967 21 12.4V9.6C21 7.90334 20.9992 6.69099 20.9216 5.74064C20.8449 4.80197 20.6982 4.20731 20.455 3.73005C19.9757 2.78924 19.2108 2.02433 18.27 1.54497C17.7927 1.30179 17.198 1.15512 16.2594 1.07842C15.309 1.00078 14.0967 1 12.4 1ZM0.653961 3.27606C0 4.55953 0 6.23969 0 9.6V12.4C0 15.7603 0 17.4405 0.653961 18.7239C1.2292 19.8529 2.14708 20.7708 3.27606 21.346C4.55953 22 6.23969 22 9.6 22H12.4C15.7603 22 17.4405 22 18.7239 21.346C19.8529 20.7708 20.7708 19.8529 21.346 18.7239C22 17.4405 22 15.7603 22 12.4V9.6C22 6.23969 22 4.55953 21.346 3.27606C20.7708 2.14708 19.8529 1.2292 18.7239 0.653961C17.4405 0 15.7603 0 12.4 0H9.6C6.23969 0 4.55953 0 3.27606 0.653961C2.14708 1.2292 1.2292 2.14708 0.653961 3.27606Z" fill="black" fill-opacity="0.2"/>
</g>
<defs>
<clipPath id="clip0_13_258">
<rect width="22" height="22" fill="white"/>
</clipPath>
</defs>
</svg>

<svg width="22" height="22" fill="none" xmlns="http://www.w3.org/2000/svg"><g clip-path="url(#a)"><path fill-rule="evenodd" clip-rule="evenodd" d="M12.4 1H9.6c-1.697 0-2.909 0-3.86.078-.938.077-1.533.224-2.01.467A5 5 0 0 0 1.545 3.73c-.243.477-.39 1.072-.467 2.01C1.001 6.692 1 7.904 1 9.6v2.8c0 1.697 0 2.909.078 3.86.077.938.224 1.533.467 2.01a5 5 0 0 0 2.185 2.185c.477.243 1.072.39 2.01.467.951.077 2.163.078 3.86.078h2.8c1.697 0 2.909 0 3.86-.078.938-.077 1.533-.224 2.01-.467a5 5 0 0 0 2.185-2.185c.243-.477.39-1.072.467-2.01.077-.951.078-2.163.078-3.86V9.6c0-1.697 0-2.909-.078-3.86-.077-.938-.224-1.533-.467-2.01a5 5 0 0 0-2.185-2.185c-.477-.243-1.072-.39-2.01-.467C15.308 1.001 14.096 1 12.4 1zM.654 3.276C0 4.56 0 6.24 0 9.6v2.8c0 3.36 0 5.04.654 6.324a6 6 0 0 0 2.622 2.622C4.56 22 6.24 22 9.6 22h2.8c3.36 0 5.04 0 6.324-.654a6 6 0 0 0 2.622-2.622C22 17.44 22 15.76 22 12.4V9.6c0-3.36 0-5.04-.654-6.324A6 6 0 0 0 18.724.654C17.44 0 15.76 0 12.4 0H9.6C6.24 0 4.56 0 3.276.654A6 6 0 0 0 .654 3.276z" fill="#000" fill-opacity=".2"/></g><defs><clipPath id="a"><path fill="#fff" d="M0 0h22v22H0z"/></clipPath></defs></svg>
